X:731
T:The Priest with the Collar
R:double jig
B:O'Neill's 731
Z:Transcribed by henrik.norbeck@mailbox.swipnet.se
M:6/8
L:1/8
K:G
D|GBG AGE|c2 c B2 A|GBG AGE|G2 G G2 D|
GBG AGE|AEA ABc|BAG AGE|G2 G G2:|
(B/c/)|dBB dBB|A2 A A2 (B/c/)|dBB dBB|G2 G G2 (B/c/)|
dBB dBB|AEA ABc|BAG AGE|G2 G G2:|
(d/e/)|f2d edB|A2 A A2 (d/e/)|f2d edB|G2 G G2 (d/e/)|
f2d edB|AEA ABc|BAG AGE|G2 G G2:|


